X:1
T:Onward Go!
T:James McGranahan, 1881
T:Onward Go!
T:Public Domain
T:Public Domain
T:Public Domain
C:James McGranahan, 1881
Z:Public Domain
%%score ( 1 2 ) ( 3 4 )
L:1/8
M:4/4
K:Db
V:1 treble 
V:2 treble 
V:3 bass 
V:4 bass 
V:1
 [FA]2 ([GB][FA]) [FA]2 ([GB][FA]) | [FA]2 [Fd]2 [FA]4 | [FA]2 [EG]2 [EG]4 | [GB]2 [FA]2 [FA]4 | %4
w: 1.~Trust- ing * in the *|Lord thy God,|On- ward go!|on- ward go!|
w: 2.~Has He * called thee *|to the plough?|On- ward go!|on- ward go!|
w: 3.~Has He * giv’n thee *|gold- en grain?|On- ward go!|on- ward go!|
w: 4.~Has he * said the *|end is near?|On- ward go!|on- ward go!|
w: 5.~In this * lit- tle *|mo- ment, then,|On- ward go!|on- ward go!|
 [FA]2 ([GB][FA]) [FA]2 ([GB][FA]) | [FA]2 [Fd]2 ([FA]2 [Ad]2) | [Ac]4 [=GB]4 | (A2 E2 E2 E2) | %8
w: Hold- ing * fast His *|prom- ised word, *|On- ward|go! * * *|
w: Night is * com- ing, *|serve Him now; *|On- ward|go! * * *|
w: Sow, and * thou shalt *|reap a- gain; *|On- ward|go! * * *|
w: Serv- ing * Him with *|ho- ly fear, *|On- ward|go! * * *|
w: In thy * ways ack- *|now- ledge Him; *|On- ward|go! * * *|
 [Ge]2 [Ge]2 [Ge]2 ([Fd][Ec]) | [Fd]2 [GB]2 (A2 d2) | [Ge]2 [Ge]2 [Ge]2 ([Fd][Ec]) | %11
w: de- ny His wor- *|thy name, Tho’ *|bring re- proach and *|
w: and love in ser- *|vice blend; On *|might- y arm de- *|
w: thy mas- ter’s gate *|re- pair, Watch- *|be and wait- ing *|
w: thy por- tion, Christ *|thy stay, Heav’n- *|bread up- on the *|
w: His mind be found *|in thee: Let *|will thy plea- sure *|
 [Fd]2 [GB]2 [FA]4 | [FA]2 ([GB][FA]) [FA]2 ([GB][FA]) | [FA]2 [Ad]2 (d2 B2) | [FA]4 [Gc]4 | %15
w: shame; Spread- ing|still His * won- drous *|fame, On- ward *||
w: pend; Stand- ing|fast un- * til the *|end, On- ward *||
w: there; He will|hear and * an- swer *|prayer; On- ward *||
w: way, Lead- ing|on to * glor- ious *|day; On- ward *||
w: be; Thus in|life and * li- ber- *|ty, On- ward *||
 (F2 G2 F4) |] %16
w: |
w: |
w: |
w: |
w: |
V:2
 x8 | x8 | x8 | x8 | x8 | x8 | x8 | A8 | x8 | x4 F4 | x8 | x8 | x8 | x4 G4 | x8 | d8 |] %16
w: |||||||Ne’er||it||||go!|||
w: |||||||Faith||His||||go!|||
w: |||||||To||ing||||go!|||
w: |||||||Christ||ly||||go!|||
w: |||||||Let||His||||go!|||
V:3
 [D,D]2 [D,D]2 [D,D]2 [D,D]2 | [D,D]2 [D,A,]2 [D,D]4 | [A,,C]2 [A,,C]2 [A,,C]4 | %3
 [D,D]2 [D,D]2 [D,D]4 | [D,D]2 [D,D]2 [D,D]2 [D,D]2 | [D,D]2 [D,A,]2 (D2 F2) | (E2 E2) (D2 D2) | %7
 (A,2 A,2 A,2 A,2) | [A,C]2 [A,C]2 [A,C]2 (DA,) | [D,A,]2 [D,D]2 D2 A,2 | %10
 [A,C]2 [A,C]2 [A,C]2 (DA,) | [D,A,]2 [D,D]2 [D,D]4 | [D,D]2 [D,D]2 [D,D]2 [D,D]2 | %13
 [D,A,]2 [D,_C]2 (B,2 D2) | [A,D]2 [A,D]2 [A,,E]2 [A,,A,]2 | (A,2 B,2 A,4) |] %16
V:4
 x8 | x8 | x8 | x8 | x8 | x4 D,4 | E,4 E,4 | C8 | x6 A,2 | x4 D,4 | x6 A,2 | x8 | x8 | x4 G,4 | %14
 x8 | D,8 |] %16

